; This file was generated with "Universal Gcode Sender 2.0.12"
;
; Tool: 3.0mm
; Depth per pass: 1.0mm
; Feed speed: 100mm/min
; Plunge speed: 100mm/min
; Safe height: 5.0mm
; Tool step over: 0.3mm
; Spindle speed: 0rpm

G21 ; millimeters
G90 ; absolute coordinate
G17 ; XY plane
G94 ; units per minute feed rate mode
G1 M3S30 F1000; Turning on spindle

; bottom row - On path (1/38)
G0 Z5
G0 X20Y20
G0 Z0
G1 F100 X20Y20Z-0
G1 F100 X20Y20Z-0
G1 X20Y83Z-0
G1 X108Y83Z-0
G1 X108Y20Z-0
G1 X20Y20Z-0
G0 Z5
G0 X20Y20
G0 Z0
G1 F100 X20Y20Z-0.2
G1 F100 X20Y20Z-0.2
G1 X20Y83Z-0.2
G1 X108Y83Z-0.2
G1 X108Y20Z-0.2
G1 X20Y20Z-0.2
G0 Z5
; bottom row - On path (2/38)
G0 Z5
G0 X59Y47.92
G0 Z0
G1 F100 X59Y47.92Z-0
G1 F100 X59Y47.92Z-0
G1 X59Y55.08Z-0
G1 X69Y55.08Z-0
G1 X69Y47.92Z-0
G1 X59Y47.92Z-0
G0 Z5
G0 X59Y47.92
G0 Z0
G1 F100 X59Y47.92Z-0.2
G1 F100 X59Y47.92Z-0.2
G1 X59Y55.08Z-0.2
G1 X69Y55.08Z-0.2
G1 X69Y47.92Z-0.2
G1 X59Y47.92Z-0.2
G0 Z5
; top row - On path (3/38)
G0 Z5
G0 X128Y20
G0 Z0
G1 F100 X128Y20Z-0
G1 F100 X128Y20Z-0
G1 X128Y83Z-0
G1 X216Y83Z-0
G1 X216Y20Z-0
G1 X128Y20Z-0
G0 Z5
G0 X128Y20
G0 Z0
G1 F100 X128Y20Z-0.2
G1 F100 X128Y20Z-0.2
G1 X128Y83Z-0.2
G1 X216Y83Z-0.2
G1 X216Y20Z-0.2
G1 X128Y20Z-0.2
G0 Z5
; top row - On path (4/38)
G0 Z5
G0 X167Y47.92
G0 Z0
G1 F100 X167Y47.92Z-0
G1 F100 X167Y47.92Z-0
G1 X167Y55.08Z-0
G1 X177Y55.08Z-0
G1 X177Y47.92Z-0
G1 X167Y47.92Z-0
G0 Z5
G0 X167Y47.92
G0 Z0
G1 F100 X167Y47.92Z-0.2
G1 F100 X167Y47.92Z-0.2
G1 X167Y55.08Z-0.2
G1 X177Y55.08Z-0.2
G1 X177Y47.92Z-0.2
G1 X167Y47.92Z-0.2
G0 Z5
; top row - On path (5/38)
G0 Z5
G0 X236Y20
G0 Z0
G1 F100 X236Y20Z-0
G1 F100 X236Y20Z-0
G1 X236Y83Z-0
G1 X324Y83Z-0
G1 X324Y20Z-0
G1 X236Y20Z-0
G0 Z5
G0 X236Y20
G0 Z0
G1 F100 X236Y20Z-0.2
G1 F100 X236Y20Z-0.2
G1 X236Y83Z-0.2
G1 X324Y83Z-0.2
G1 X324Y20Z-0.2
G1 X236Y20Z-0.2
G0 Z5
; top row - On path (6/38)
G0 Z5
G0 X275Y47.92
G0 Z0
G1 F100 X275Y47.92Z-0
G1 F100 X275Y47.92Z-0
G1 X275Y55.08Z-0
G1 X285Y55.08Z-0
G1 X285Y47.92Z-0
G1 X275Y47.92Z-0
G0 Z5
G0 X275Y47.92
G0 Z0
G1 F100 X275Y47.92Z-0.2
G1 F100 X275Y47.92Z-0.2
G1 X275Y55.08Z-0.2
G1 X285Y55.08Z-0.2
G1 X285Y47.92Z-0.2
G1 X275Y47.92Z-0.2
G0 Z5
; top row - On path (7/38)
G0 Z5
G0 X344Y20
G0 Z0
G1 F100 X344Y20Z-0
G1 F100 X344Y20Z-0
G1 X344Y83Z-0
G1 X432Y83Z-0
G1 X432Y20Z-0
G1 X344Y20Z-0
G0 Z5
G0 X344Y20
G0 Z0
G1 F100 X344Y20Z-0.2
G1 F100 X344Y20Z-0.2
G1 X344Y83Z-0.2
G1 X432Y83Z-0.2
G1 X432Y20Z-0.2
G1 X344Y20Z-0.2
G0 Z5
; top row - On path (8/38)
G0 Z5
G0 X383Y47.92
G0 Z0
G1 F100 X383Y47.92Z-0
G1 F100 X383Y47.92Z-0
G1 X383Y55.08Z-0
G1 X393Y55.08Z-0
G1 X393Y47.92Z-0
G1 X383Y47.92Z-0
G0 Z5
G0 X383Y47.92
G0 Z0
G1 F100 X383Y47.92Z-0.2
G1 F100 X383Y47.92Z-0.2
G1 X383Y55.08Z-0.2
G1 X393Y55.08Z-0.2
G1 X393Y47.92Z-0.2
G1 X383Y47.92Z-0.2
G0 Z5
; hor 3 - On path (9/38)
G0 Z5
G0 X12.5Y90
G0 Z0
G1 F100 X12.5Y90Z-0
G1 F100 X12.5Y90Z-0
G1 X12.5Y95.672Z-0
G1 X444.5Y95.672Z-0
G1 X444.5Y90Z-0
G1 X12.5Y90Z-0
G0 Z5
G0 X12.5Y90
G0 Z0
G1 F100 X12.5Y90Z-0.2
G1 F100 X12.5Y90Z-0.2
G1 X12.5Y95.672Z-0.2
G1 X444.5Y95.672Z-0.2
G1 X444.5Y90Z-0.2
G1 X12.5Y90Z-0.2
G0 Z5
; second row - On path (10/38)
G0 Z5
G0 X59Y130.92
G0 Z0
G1 F100 X59Y130.92Z-0
G1 F100 X59Y130.92Z-0
G1 X59Y138.08Z-0
G1 X69Y138.08Z-0
G1 X69Y130.92Z-0
G1 X59Y130.92Z-0
G0 Z5
G0 X59Y130.92
G0 Z0
G1 F100 X59Y130.92Z-0.2
G1 F100 X59Y130.92Z-0.2
G1 X59Y138.08Z-0.2
G1 X69Y138.08Z-0.2
G1 X69Y130.92Z-0.2
G1 X59Y130.92Z-0.2
G0 Z5
; second row - On path (11/38)
G0 Z5
G0 X20Y103
G0 Z0
G1 F100 X20Y103Z-0
G1 F100 X20Y103Z-0
G1 X20Y166Z-0
G1 X108Y166Z-0
G1 X108Y103Z-0
G1 X20Y103Z-0
G0 Z5
G0 X20Y103
G0 Z0
G1 F100 X20Y103Z-0.2
G1 F100 X20Y103Z-0.2
G1 X20Y166Z-0.2
G1 X108Y166Z-0.2
G1 X108Y103Z-0.2
G1 X20Y103Z-0.2
G0 Z5
; top row - On path (12/38)
G0 Z5
G0 X128Y103
G0 Z0
G1 F100 X128Y103Z-0
G1 F100 X128Y103Z-0
G1 X128Y166Z-0
G1 X216Y166Z-0
G1 X216Y103Z-0
G1 X128Y103Z-0
G0 Z5
G0 X128Y103
G0 Z0
G1 F100 X128Y103Z-0.2
G1 F100 X128Y103Z-0.2
G1 X128Y166Z-0.2
G1 X216Y166Z-0.2
G1 X216Y103Z-0.2
G1 X128Y103Z-0.2
G0 Z5
; top row - On path (13/38)
G0 Z5
G0 X167Y130.92
G0 Z0
G1 F100 X167Y130.92Z-0
G1 F100 X167Y130.92Z-0
G1 X167Y138.08Z-0
G1 X177Y138.08Z-0
G1 X177Y130.92Z-0
G1 X167Y130.92Z-0
G0 Z5
G0 X167Y130.92
G0 Z0
G1 F100 X167Y130.92Z-0.2
G1 F100 X167Y130.92Z-0.2
G1 X167Y138.08Z-0.2
G1 X177Y138.08Z-0.2
G1 X177Y130.92Z-0.2
G1 X167Y130.92Z-0.2
G0 Z5
; top row - On path (14/38)
G0 Z5
G0 X236Y103
G0 Z0
G1 F100 X236Y103Z-0
G1 F100 X236Y103Z-0
G1 X236Y166Z-0
G1 X324Y166Z-0
G1 X324Y103Z-0
G1 X236Y103Z-0
G0 Z5
G0 X236Y103
G0 Z0
G1 F100 X236Y103Z-0.2
G1 F100 X236Y103Z-0.2
G1 X236Y166Z-0.2
G1 X324Y166Z-0.2
G1 X324Y103Z-0.2
G1 X236Y103Z-0.2
G0 Z5
; top row - On path (15/38)
G0 Z5
G0 X275Y130.92
G0 Z0
G1 F100 X275Y130.92Z-0
G1 F100 X275Y130.92Z-0
G1 X275Y138.08Z-0
G1 X285Y138.08Z-0
G1 X285Y130.92Z-0
G1 X275Y130.92Z-0
G0 Z5
G0 X275Y130.92
G0 Z0
G1 F100 X275Y130.92Z-0.2
G1 F100 X275Y130.92Z-0.2
G1 X275Y138.08Z-0.2
G1 X285Y138.08Z-0.2
G1 X285Y130.92Z-0.2
G1 X275Y130.92Z-0.2
G0 Z5
; top row - On path (16/38)
G0 Z5
G0 X344Y103
G0 Z0
G1 F100 X344Y103Z-0
G1 F100 X344Y103Z-0
G1 X344Y166Z-0
G1 X432Y166Z-0
G1 X432Y103Z-0
G1 X344Y103Z-0
G0 Z5
G0 X344Y103
G0 Z0
G1 F100 X344Y103Z-0.2
G1 F100 X344Y103Z-0.2
G1 X344Y166Z-0.2
G1 X432Y166Z-0.2
G1 X432Y103Z-0.2
G1 X344Y103Z-0.2
G0 Z5
; top row - On path (17/38)
G0 Z5
G0 X383Y130.92
G0 Z0
G1 F100 X383Y130.92Z-0
G1 F100 X383Y130.92Z-0
G1 X383Y138.08Z-0
G1 X393Y138.08Z-0
G1 X393Y130.92Z-0
G1 X383Y130.92Z-0
G0 Z5
G0 X383Y130.92
G0 Z0
G1 F100 X383Y130.92Z-0.2
G1 F100 X383Y130.92Z-0.2
G1 X383Y138.08Z-0.2
G1 X393Y138.08Z-0.2
G1 X393Y130.92Z-0.2
G1 X383Y130.92Z-0.2
G0 Z5
; vert 1 - On path (18/38)
G0 Z5
G0 X115.17Y10
G0 Z0
G1 F100 X115.17Y10Z-0
G1 F100 X115.17Y10Z-0
G1 X115.17Y342Z-0
G1 X120.83Y342Z-0
G1 X120.83Y10Z-0
G1 X115.17Y10Z-0
G0 Z5
G0 X115.17Y10
G0 Z0
G1 F100 X115.17Y10Z-0.2
G1 F100 X115.17Y10Z-0.2
G1 X115.17Y342Z-0.2
G1 X120.83Y342Z-0.2
G1 X120.83Y10Z-0.2
G1 X115.17Y10Z-0.2
G0 Z5
; hor 2 - On path (19/38)
G0 Z5
G0 X12.5Y173
G0 Z0
G1 F100 X12.5Y173Z-0
G1 F100 X12.5Y173Z-0
G1 X12.5Y178.672Z-0
G1 X444.5Y178.672Z-0
G1 X444.5Y173Z-0
G1 X12.5Y173Z-0
G0 Z5
G0 X12.5Y173
G0 Z0
G1 F100 X12.5Y173Z-0.2
G1 F100 X12.5Y173Z-0.2
G1 X12.5Y178.672Z-0.2
G1 X444.5Y178.672Z-0.2
G1 X444.5Y173Z-0.2
G1 X12.5Y173Z-0.2
G0 Z5
; vert 2 - On path (20/38)
G0 Z5
G0 X223.17Y10
G0 Z0
G1 F100 X223.17Y10Z-0
G1 F100 X223.17Y10Z-0
G1 X223.17Y342Z-0
G1 X228.83Y342Z-0
G1 X228.83Y10Z-0
G1 X223.17Y10Z-0
G0 Z5
G0 X223.17Y10
G0 Z0
G1 F100 X223.17Y10Z-0.2
G1 F100 X223.17Y10Z-0.2
G1 X223.17Y342Z-0.2
G1 X228.83Y342Z-0.2
G1 X228.83Y10Z-0.2
G1 X223.17Y10Z-0.2
G0 Z5
; vert 3 - On path (21/38)
G0 Z5
G0 X331.17Y10
G0 Z0
G1 F100 X331.17Y10Z-0
G1 F100 X331.17Y10Z-0
G1 X331.17Y342Z-0
G1 X336.83Y342Z-0
G1 X336.83Y10Z-0
G1 X331.17Y10Z-0
G0 Z5
G0 X331.17Y10
G0 Z0
G1 F100 X331.17Y10Z-0.2
G1 F100 X331.17Y10Z-0.2
G1 X331.17Y342Z-0.2
G1 X336.83Y342Z-0.2
G1 X336.83Y10Z-0.2
G1 X331.17Y10Z-0.2
G0 Z5
; third row - On path (22/38)
G0 Z5
G0 X59Y213.92
G0 Z0
G1 F100 X59Y213.92Z-0
G1 F100 X59Y213.92Z-0
G1 X59Y221.08Z-0
G1 X69Y221.08Z-0
G1 X69Y213.92Z-0
G1 X59Y213.92Z-0
G0 Z5
G0 X59Y213.92
G0 Z0
G1 F100 X59Y213.92Z-0.2
G1 F100 X59Y213.92Z-0.2
G1 X59Y221.08Z-0.2
G1 X69Y221.08Z-0.2
G1 X69Y213.92Z-0.2
G1 X59Y213.92Z-0.2
G0 Z5
; third row - On path (23/38)
G0 Z5
G0 X20Y186
G0 Z0
G1 F100 X20Y186Z-0
G1 F100 X20Y186Z-0
G1 X20Y249Z-0
G1 X108Y249Z-0
G1 X108Y186Z-0
G1 X20Y186Z-0
G0 Z5
G0 X20Y186
G0 Z0
G1 F100 X20Y186Z-0.2
G1 F100 X20Y186Z-0.2
G1 X20Y249Z-0.2
G1 X108Y249Z-0.2
G1 X108Y186Z-0.2
G1 X20Y186Z-0.2
G0 Z5
; top row - On path (24/38)
G0 Z5
G0 X167Y213.92
G0 Z0
G1 F100 X167Y213.92Z-0
G1 F100 X167Y213.92Z-0
G1 X167Y221.08Z-0
G1 X177Y221.08Z-0
G1 X177Y213.92Z-0
G1 X167Y213.92Z-0
G0 Z5
G0 X167Y213.92
G0 Z0
G1 F100 X167Y213.92Z-0.2
G1 F100 X167Y213.92Z-0.2
G1 X167Y221.08Z-0.2
G1 X177Y221.08Z-0.2
G1 X177Y213.92Z-0.2
G1 X167Y213.92Z-0.2
G0 Z5
; top row - On path (25/38)
G0 Z5
G0 X128Y186
G0 Z0
G1 F100 X128Y186Z-0
G1 F100 X128Y186Z-0
G1 X128Y249Z-0
G1 X216Y249Z-0
G1 X216Y186Z-0
G1 X128Y186Z-0
G0 Z5
G0 X128Y186
G0 Z0
G1 F100 X128Y186Z-0.2
G1 F100 X128Y186Z-0.2
G1 X128Y249Z-0.2
G1 X216Y249Z-0.2
G1 X216Y186Z-0.2
G1 X128Y186Z-0.2
G0 Z5
; top row - On path (26/38)
G0 Z5
G0 X275Y213.92
G0 Z0
G1 F100 X275Y213.92Z-0
G1 F100 X275Y213.92Z-0
G1 X275Y221.08Z-0
G1 X285Y221.08Z-0
G1 X285Y213.92Z-0
G1 X275Y213.92Z-0
G0 Z5
G0 X275Y213.92
G0 Z0
G1 F100 X275Y213.92Z-0.2
G1 F100 X275Y213.92Z-0.2
G1 X275Y221.08Z-0.2
G1 X285Y221.08Z-0.2
G1 X285Y213.92Z-0.2
G1 X275Y213.92Z-0.2
G0 Z5
; top row - On path (27/38)
G0 Z5
G0 X236Y186
G0 Z0
G1 F100 X236Y186Z-0
G1 F100 X236Y186Z-0
G1 X236Y249Z-0
G1 X324Y249Z-0
G1 X324Y186Z-0
G1 X236Y186Z-0
G0 Z5
G0 X236Y186
G0 Z0
G1 F100 X236Y186Z-0.2
G1 F100 X236Y186Z-0.2
G1 X236Y249Z-0.2
G1 X324Y249Z-0.2
G1 X324Y186Z-0.2
G1 X236Y186Z-0.2
G0 Z5
; top row - On path (28/38)
G0 Z5
G0 X344Y186
G0 Z0
G1 F100 X344Y186Z-0
G1 F100 X344Y186Z-0
G1 X344Y249Z-0
G1 X432Y249Z-0
G1 X432Y186Z-0
G1 X344Y186Z-0
G0 Z5
G0 X344Y186
G0 Z0
G1 F100 X344Y186Z-0.2
G1 F100 X344Y186Z-0.2
G1 X344Y249Z-0.2
G1 X432Y249Z-0.2
G1 X432Y186Z-0.2
G1 X344Y186Z-0.2
G0 Z5
; top row - On path (29/38)
G0 Z5
G0 X383Y213.92
G0 Z0
G1 F100 X383Y213.92Z-0
G1 F100 X383Y213.92Z-0
G1 X383Y221.08Z-0
G1 X393Y221.08Z-0
G1 X393Y213.92Z-0
G1 X383Y213.92Z-0
G0 Z5
G0 X383Y213.92
G0 Z0
G1 F100 X383Y213.92Z-0.2
G1 F100 X383Y213.92Z-0.2
G1 X383Y221.08Z-0.2
G1 X393Y221.08Z-0.2
G1 X393Y213.92Z-0.2
G1 X383Y213.92Z-0.2
G0 Z5
; hor 1 - On path (30/38)
G0 Z5
G0 X12.5Y256
G0 Z0
G1 F100 X12.5Y256Z-0
G1 F100 X12.5Y256Z-0
G1 X12.5Y261.672Z-0
G1 X444.5Y261.672Z-0
G1 X444.5Y256Z-0
G1 X12.5Y256Z-0
G0 Z5
G0 X12.5Y256
G0 Z0
G1 F100 X12.5Y256Z-0.2
G1 F100 X12.5Y256Z-0.2
G1 X12.5Y261.672Z-0.2
G1 X444.5Y261.672Z-0.2
G1 X444.5Y256Z-0.2
G1 X12.5Y256Z-0.2
G0 Z5
; top row - On path (31/38)
G0 Z5
G0 X59Y296.92
G0 Z0
G1 F100 X59Y296.92Z-0
G1 F100 X59Y296.92Z-0
G1 X59Y304.08Z-0
G1 X69Y304.08Z-0
G1 X69Y296.92Z-0
G1 X59Y296.92Z-0
G0 Z5
G0 X59Y296.92
G0 Z0
G1 F100 X59Y296.92Z-0.2
G1 F100 X59Y296.92Z-0.2
G1 X59Y304.08Z-0.2
G1 X69Y304.08Z-0.2
G1 X69Y296.92Z-0.2
G1 X59Y296.92Z-0.2
G0 Z5
; top row - On path (32/38)
G0 Z5
G0 X20Y269
G0 Z0
G1 F100 X20Y269Z-0
G1 F100 X20Y269Z-0
G1 X20Y332Z-0
G1 X108Y332Z-0
G1 X108Y269Z-0
G1 X20Y269Z-0
G0 Z5
G0 X20Y269
G0 Z0
G1 F100 X20Y269Z-0.2
G1 F100 X20Y269Z-0.2
G1 X20Y332Z-0.2
G1 X108Y332Z-0.2
G1 X108Y269Z-0.2
G1 X20Y269Z-0.2
G0 Z5
; top row - On path (33/38)
G0 Z5
G0 X128Y269
G0 Z0
G1 F100 X128Y269Z-0
G1 F100 X128Y269Z-0
G1 X128Y332Z-0
G1 X216Y332Z-0
G1 X216Y269Z-0
G1 X128Y269Z-0
G0 Z5
G0 X128Y269
G0 Z0
G1 F100 X128Y269Z-0.2
G1 F100 X128Y269Z-0.2
G1 X128Y332Z-0.2
G1 X216Y332Z-0.2
G1 X216Y269Z-0.2
G1 X128Y269Z-0.2
G0 Z5
; top row - On path (34/38)
G0 Z5
G0 X167Y296.92
G0 Z0
G1 F100 X167Y296.92Z-0
G1 F100 X167Y296.92Z-0
G1 X167Y304.08Z-0
G1 X177Y304.08Z-0
G1 X177Y296.92Z-0
G1 X167Y296.92Z-0
G0 Z5
G0 X167Y296.92
G0 Z0
G1 F100 X167Y296.92Z-0.2
G1 F100 X167Y296.92Z-0.2
G1 X167Y304.08Z-0.2
G1 X177Y304.08Z-0.2
G1 X177Y296.92Z-0.2
G1 X167Y296.92Z-0.2
G0 Z5
; top row - On path (35/38)
G0 Z5
G0 X236Y269
G0 Z0
G1 F100 X236Y269Z-0
G1 F100 X236Y269Z-0
G1 X236Y332Z-0
G1 X324Y332Z-0
G1 X324Y269Z-0
G1 X236Y269Z-0
G0 Z5
G0 X236Y269
G0 Z0
G1 F100 X236Y269Z-0.2
G1 F100 X236Y269Z-0.2
G1 X236Y332Z-0.2
G1 X324Y332Z-0.2
G1 X324Y269Z-0.2
G1 X236Y269Z-0.2
G0 Z5
; top row - On path (36/38)
G0 Z5
G0 X275Y296.92
G0 Z0
G1 F100 X275Y296.92Z-0
G1 F100 X275Y296.92Z-0
G1 X275Y304.08Z-0
G1 X285Y304.08Z-0
G1 X285Y296.92Z-0
G1 X275Y296.92Z-0
G0 Z5
G0 X275Y296.92
G0 Z0
G1 F100 X275Y296.92Z-0.2
G1 F100 X275Y296.92Z-0.2
G1 X275Y304.08Z-0.2
G1 X285Y304.08Z-0.2
G1 X285Y296.92Z-0.2
G1 X275Y296.92Z-0.2
G0 Z5
; top row - On path (37/38)
G0 Z5
G0 X344Y269
G0 Z0
G1 F100 X344Y269Z-0
G1 F100 X344Y269Z-0
G1 X344Y332Z-0
G1 X432Y332Z-0
G1 X432Y269Z-0
G1 X344Y269Z-0
G0 Z5
G0 X344Y269
G0 Z0
G1 F100 X344Y269Z-0.2
G1 F100 X344Y269Z-0.2
G1 X344Y332Z-0.2
G1 X432Y332Z-0.2
G1 X432Y269Z-0.2
G1 X344Y269Z-0.2
G0 Z5
; top row - On path (38/38)
G0 Z5
G0 X383Y296.92
G0 Z0
G1 F100 X383Y296.92Z-0
G1 F100 X383Y296.92Z-0
G1 X383Y304.08Z-0
G1 X393Y304.08Z-0
G1 X393Y296.92Z-0
G1 X383Y296.92Z-0
G0 Z5
G0 X383Y296.92
G0 Z0
G1 F100 X383Y296.92Z-0.2
G1 F100 X383Y296.92Z-0.2
G1 X383Y304.08Z-0.2
G1 X393Y304.08Z-0.2
G1 X393Y296.92Z-0.2
G1 X383Y296.92Z-0.2
G0 Z5

; Turning off spindle
M05
